icons/english-input.svg

<svg viewBox="0 0 24 24" fill="currentColor" xmlns="http://www.w3.org/2000/svg">
    <path d="M14 10H16L16.0005 10.7574C16.7154 10.279 17.5751 10 18.5 10C20.9853 10 23 12.0147 23 14.5V20H21V14.5C21 13.07 19.8255 12 18.5 12C17.1745 12 16 13.07 16 14.5V20H14V10ZM12 4V6H4V11H12V13H4V18H12V20H2V4H12Z"/>
</svg>

<svg xmlns="http://www.w3.org/2000/svg" viewBox="0 0 24 24">
    <path fill="none" d="M0 0h24v24H0z"/>
    <path d="M14 10h2v.757a4.5 4.5 0 0 1 7 3.743V20h-2v-5.5c0-1.43-1.175-2.5-2.5-2.5S16 13.07 16 14.5V20h-2V10zm-2-6v2H4v5h8v2H4v5h8v2H2V4h10z"/>
</svg>
